!!!COM: Palestrina, Giovanni Perluigi da
!!!OPR: In duplicibus minoribus (II)
!!!OTL: Credo
**kern	**kern	**kern	**kern	**kern
*Ibass	*Itenor	*Itenor	*Icalto	*Icant
!Bassus	!Tenor 2	!Tenor 1	!Altus	!Cantus
*clefF4	*clefGv2	*clefGv2	*clefG2	*clefG2
*k[]	*k[]	*k[]	*k[]	*k[]
*E:phr	*E:phr	*E:phr	*E:phr	*E:phr
*M4/2	*M4/2	*M4/2	*M4/2	*M4/2
=1	=1	=1	=1	=1
0r	0r	0r	1A	1r
.	.	.	2c	1e
.	.	.	2c	.
=2	=2	=2	=2	=2
0r	0r	0r	1B	2g
.	.	.	.	2g
.	.	.	2A	1a
.	.	.	2d	.
=3	=3	=3	=3	=3
0r	1r	0r	4c	2e
.	.	.	4A	.
.	.	.	4c	2a
.	.	.	4d	.
.	1E	.	[1e	4g
.	.	.	.	4e
.	.	.	.	4g
.	.	.	.	4a
=4	=4	=4	=4	=4
0r	2G	0r	2e]	4b
.	.	.	.	4cc
.	2G	.	2d	2.b
.	1A	.	2c	.
.	.	.	.	4a
.	.	.	4B	[2a
.	.	.	4A	.
=5	=5	=5	=5	=5
1r	1E	0r	1B	2a]
.	.	.	.	2g
1AA	1A	.	[1c	2e
.	.	.	.	[2f
=6	=6	=6	=6	=6
2C	1G	1r	1c]	4f]
.	.	.	.	4e
2C	.	.	.	1e
1D	1F	1A	2r	.
.	.	.	2A	2d
=7	=7	=7	=7	=7
2AA	1E	2c	2A	1e
2C	.	2c	2A	.
1BB	1D	1d	4G#	2r
.	.	.	2A	.
.	.	.	.	2b
.	.	.	4G#	.
=8	=8	=8	=8	=8
0AA	[0E	2c	2A	2.cc
.	.	2A	2e	.
.	.	.	.	4b
.	.	1c	1e	1a
=9	=9	=9	=9	=9
2r	1E]	1B	2e	1g#
1E	.	.	2B	.
.	1r	2G	2c	1r
2F	.	2A	2d	.
=10	=10	=10	=10	=10
2G	0r	2B	2d	0r
2G	.	2B	2.e	.
1A	.	1c	.	.
.	.	.	4c	.
.	.	.	2f	.
=11	=11	=11	=11	=11
2G	0r	2B	2e	1r
2F	.	2A	2d	.
1E	.	4G#	[1e	1b
.	.	2A	.	.
.	.	4G#	.	.
=12	=12	=12	=12	=12
0r	2r	1A	2e]	2.cc
.	2A	.	2e	.
.	.	.	.	4b
.	1d	1r	1f	4a
.	.	.	.	4g#
.	.	.	.	[2a
=13	=13	=13	=13	=13
0r	2c	0r	2e	2a]
.	2B	.	2d	2g#
.	4c	.	2e	1a
.	4A	.	.	.
.	[2d	.	[2f	.
=14	=14	=14	=14	=14
0r	2d]	0r	2f]	2b
.	2c	.	1e	1a
.	[1B	.	.	.
.	.	.	2d	4g#
.	.	.	.	4f#
=15	=15	=15	=15	=15
1E	1B]	2r	2e	2g#
.	.	2B	1e	2g#
1A	1r	1c	.	1a
.	.	.	2f	.
=16	=16	=16	=16	=16
2G	0r	2B	2e	0r
2F	.	2A	2d	.
4G	.	2B	2e	.
4E	.	.	.	.
[2A	.	[2c	[2f	.
=17	=17	=17	=17	=17
2A]	1E	2c]	2f]	0r
2G	.	1B	1e	.
2F	1A	.	.	.
2F	.	2A	2d	.
=18	=18	=18	=18	=18
1E	1G#	1B	[0e	1b
1AA	1A	2r	.	1cc
.	.	2A	.	.
=19	=19	=19	=19	=19
2r	2B	2G#	1e_	2b
2A	2c	2A	.	2a
2G#	2B	2E	1e_	2b
2A	[2A	[2e	.	[2cc
=20	=20	=20	=20	=20
1E	2A]	2e]	0e]	2cc]
.	2G#	2B	.	1b
2AA	1A	1c	.	.
2AA	.	.	.	2a
=21	=21	=21	=21	=21
[0E	[0G#	[0B	[0e	[0b
=22	=22	=22	=22	=22
0E]	0G#]	0B]	0e]	0b]
!! Et ex Patre
*Ibass	*Itenor	*Itenor	*Icalto	*Icant
!Bassus	!Tenor 2	!Tenor 1	!Altus	!Cantus
*clefF4	*clefGv2	*clefGv2	*clefG2	*clefG2
*k[]	*k[]	*k[]	*k[]	*k[]
*E:phr	*E:phr	*E:phr	*E:phr	*E:phr
*M4/2	*M4/2	*M4/2	*M4/2	*M4/2
=23	=23	=23	=23	=23
1.E	0r	1r	0r	0r
.	.	[1B	.	.
2D	.	.	.	.
=24	=24	=24	=24	=24
2G	0r	2B]	0r	0r
2F	.	2A	.	.
4E	.	2c	.	.
4F	.	.	.	.
4G	.	2B	.	.
4E	.	.	.	.
=25	=25	=25	=25	=25
1F	2.A	1d	2r	1r
.	.	.	1A	.
.	4B	.	.	.
1E	2c	1e	.	2r
.	2B	.	2G	[2e
=26	=26	=26	=26	=26
0r	4A	0r	2c	2e]
.	4E	.	.	.
.	2G	.	2B	2d
.	2D	.	4A	2f
.	.	.	4B	.
.	2A	.	4c	2e
.	.	.	4A	.
=27	=27	=27	=27	=27
0r	1E	2r	1B	1g
.	.	1e	.	.
.	2r	.	1A	2.a
.	[2e	2c	.	.
.	.	.	.	8g
.	.	.	.	8f
=28	=28	=28	=28	=28
1E	2e]	2B	0r	[0g
.	2c	2e	.	.
[1G	2B	2d	.	.
.	2e	[2c	.	.
=29	=29	=29	=29	=29
1G]	2d	2c]	1r	1g]
.	2.e	2B	.	.
[1A	.	1c	2r	2r
.	4d	.	.	.
.	4c	.	2A	[2e
.	4B	.	.	.
=30	=30	=30	=30	=30
2A]	2A	2r	2c	2e]
2G	2B	2B	2.d	2g
1F	1A	1d	.	[1a
.	.	.	4c	.
.	.	.	2A	.
=31	=31	=31	=31	=31
1E	0r	2e	2B	2a]
.	.	2e	2c	2g
1D	.	1A	2.d	1f
.	.	.	4c	.
=32	=32	=32	=32	=32
1E	1r	0G	4B	1e
.	.	.	4G	.
.	.	.	1c	.
1r	2r	.	.	1d
.	[2G	.	2B	.
=33	=33	=33	=33	=33
1.C	2G]	1E	1c	[0e
.	4F	.	.	.
.	4E	.	.	.
.	2G	2E	[1e	.
4BB	2A	[2c	.	.
4AA	.	.	.	.
=34	=34	=34	=34	=34
2.C	[0E	2c]	2e]	0e]
.	.	4B	4d	.
4D	.	4A	4c	.
2E	.	2G#	2B	.
2AA	.	2A	2c	.
=35	=35	=35	=35	=35
[0E	1E_	[0G#	[0B	[0e
.	1E_	.	.	.
=36	=36	=36	=36	=36
0E]	0E]	0G#]	0B]	0e]
!! Genitum non factum
*Ibass	*Itenor	*Itenor	*Icalto	*Icant
!Bassus	!Tenor 2	!Tenor 1	!Altus	!Cantus
*clefF4	*clefGv2	*clefGv2	*clefG2	*clefG2
*k[]	*k[]	*k[]	*k[]	*k[]
*E:phr	*E:phr	*E:phr	*E:phr	*E:phr
*M4/2	*M4/2	*M4/2	*M4/2	*M4/2
=37	=37	=37	=37	=37
0r	0r	1.A	1r	0r
.	.	.	[1e	.
.	.	2G	.	.
=38	=38	=38	=38	=38
0r	1r	2A	2e]	0r
.	.	2B	2d	.
.	[1A	2.c	2e	.
.	.	.	2f	.
.	.	4B	.	.
=39	=39	=39	=39	=39
0r	2A]	4c	2.e	2r
.	.	4A	.	.
.	2G	2B	.	1e
.	.	.	4d	.
.	2A	2c	2c	.
.	2B	2d	2B	2d
=40	=40	=40	=40	=40
0r	2c	2r	1A	2e
.	2.d	2D	.	2f
.	.	2.E	1G	1e
.	4c	.	.	.
.	[2c	.	.	.
.	.	4F	.	.
=41	=41	=41	=41	=41
0r	2c]	1G	2r	1d
.	2B	.	2.g	.
.	2c	1C	.	1c
.	.	.	4f	.
.	[2c	.	4e	.
.	.	.	4d	.
=42	=42	=42	=42	=42
0r	2c]	0r	2c	2.e
.	2A	.	2c	.
.	.	.	.	4e
.	2B	.	2d	2g
.	2c	.	2e	2g
=43	=43	=43	=43	=43
0r	2F	0r	2f	2a
.	2A	.	2c	2e
.	4D	.	1d	1f
.	4E	.	.	.
.	4F	.	.	.
.	4G	.	.	.
=44	=44	=44	=44	=44
2r	1A	2r	1c#	[0e
1A	.	2A	.	.
.	1E	1B	1r	.
2G	.	.	.	.
=45	=45	=45	=45	=45
1A	0r	1c	2r	1e]
.	.	.	1e	.
2G	.	2B	.	1r
2F	.	2A	2d	.
=46	=46	=46	=46	=46
2E	0r	2c	2e	2r
2D	.	2d	2f	1a
1E	.	1B	2.e	.
.	.	.	.	2g
.	.	.	8d	.
.	.	.	8e	.
=47	=47	=47	=47	=47
0r	0r	1A	2f	1a
.	.	.	4e	.
.	.	.	4d	.
.	.	2c	2e	2g
.	.	2d	2d	2f
=48	=48	=48	=48	=48
0r	0r	2A	2c	2e
.	.	2B	1d	2d
.	.	1A	.	1e
.	.	.	4c	.
.	.	.	4B	.
=49	=49	=49	=49	=49
2r	1.e	2r	4c	2r
.	.	.	4d	.
1C	.	1G	4e	1cc
.	.	.	4f	.
.	.	.	[1g	.
2GG	2d	2G	.	2b
=50	=50	=50	=50	=50
1C	1e	2.G	1g]	1cc
.	.	4A	.	.
2GG	2d	2B	2r	2b
2AA	2c	2E	[2e	2a
=51	=51	=51	=51	=51
2E	2B	2G#	2e]	2b
2AA	2A	1A	2e	2cc
1E	1B	.	1e	1b
.	.	4G#	.	.
.	.	4F#	.	.
=52	=52	=52	=52	=52
[0E	[0B	[0G#	[0e	[0b
=53	=53	=53	=53	=53
0E]	0B]	0G#]	0e]	0b]
!! Et incarnatus
*Ibass	*Itenor	*Itenor	*Icalto	*Icant
!Bassus	!Tenor 2	!Tenor 1	!Altus	!Cantus
*clefF4	*clefGv2	*clefGv2	*clefG2	*clefG2
*k[]	*k[]	*k[]	*k[]	*k[]
*E:phr	*E:phr	*E:phr	*E:phr	*E:phr
*M4/2	*M4/2	*M4/2	*M4/2	*M4/2
=54	=54	=54	=54	=54
0A	0c	0r	0e	0a
=55	=55	=55	=55	=55
1E	1B	0r	1e	1g#
1F	1A	.	2c	1a
.	.	.	[2f	.
=56	=56	=56	=56	=56
1C	1c	1r	2f]	1g
.	.	.	2e	.
1D	2A	[1A	1d	1f
.	2D	.	.	.
=57	=57	=57	=57	=57
0E	1r	1A]	2c	0e
.	.	.	4B	.
.	.	.	4A	.
.	2r	1G#	2B	.
.	2E	.	2e	.
=58	=58	=58	=58	=58
0r	2c	1A	2e	1r
.	2c	.	1f	.
.	1B	1G	.	2r
.	.	.	[2e	2e
=59	=59	=59	=59	=59
1r	1A	1F	2e]	1a
.	.	.	2d	.
2r	1B	1E	1e	1g
2E	.	.	.	.
=60	=60	=60	=60	=60
1A	2r	0r	1e	2a
.	2A	.	.	1cc
1G	1d	.	2g	.
.	.	.	2g	[2b
=61	=61	=61	=61	=61
1A	1c	0r	2f	4b]
.	.	.	.	4a
.	.	.	1e	1a
1B	1d	.	.	.
.	.	.	[2d	2g#
=62	=62	=62	=62	=62
1A	1e	1r	2d]	0a
.	.	.	4c	.
.	.	.	4B	.
[1A	1e	2r	2c	.
.	.	[2c	[2e	.
=63	=63	=63	=63	=63
2A]	0r	2c]	2e]	0r
2G	.	2B	2e	.
2F	.	2A	2d	.
2E	.	2G	2c	.
=64	=64	=64	=64	=64
2F	1r	2A	2d	1r
2G	.	2B	2d	.
1A	[1e	2c	1c	2r
.	.	[2c	.	[2cc
=65	=65	=65	=65	=65
0r	2e]	2c]	2.g	2cc]
.	2d	2G	.	2b
.	.	.	4f	.
.	2c	2A	2e	2a
.	2B	2E	2e	2g#
=66	=66	=66	=66	=66
0r	2c	2A	2f	2a
.	2d	2G	2g	2b
.	1e	1C	1g	1cc
=67	=67	=67	=67	=67
0AA	0c#	2r	0e	0a
.	.	1E	.	.
.	.	[2A	.	.
=68	=68	=68	=68	=68
0D	0d	4A]	0f	0a
.	.	4G	.	.
.	.	4F	.	.
.	.	4E	.	.
.	.	2.F	.	.
.	.	4G	.	.
=69	=69	=69	=69	=69
0AA	1c	2A	1e	0a
.	.	1A	.	.
.	[1c	.	[1e	.
.	.	4G	.	.
.	.	4F	.	.
=70	=70	=70	=70	=70
0C	2c]	1E	2e]	0g
.	4B	.	4d	.
.	4A	.	4c	.
.	2G	2.c	1e	.
.	2E	.	.	.
.	.	4B	.	.
=71	=71	=71	=71	=71
0D	1F	0A	0d	0f
.	1D	.	.	.
=72	=72	=72	=72	=72
0AA	[0E	0A	0c	[0e
=73	=73	=73	=73	=73
[0E	1E_	[0G#	[0B	1e_
.	1E_	.	.	1e_
=74	=74	=74	=74	=74
0E]	0E]	0G#]	0B]	0e]
*	*	*	*	*-
!! Et resurrexit
*Itenor	*Itenor	*Icalto	*Icant
!Tenor 2	!Tenor 1	!Altus	!Cantus
*clefGv2	*clefGv2	*clefG2	*clefG2
*k[]	*k[]	*k[]	*k[]
*E:phr	*E:phr	*E:phr	*E:phr
*M4/2	*M4/2	*M4/2	*M4/2
=75	=75	=75	=75
0r	0r	1A	1a
.	.	2B	2g
.	.	2c	2a
=76	=76	=76	=76
1r	1r	1d	1f
2r	1A	1c	[1e
2A	.	.	.
=77	=77	=77	=77
2B	2G	1r	1e]
2c	2A	.	.
1d	1F	2r	1r
.	.	2A	.
=78	=78	=78	=78
1e	2E	2B	1r
.	1A	2.c	.
1r	.	.	1e
.	.	4d	.
.	[2c	[2e	.
=79	=79	=79	=79
0r	2c]	2e]	1.g
.	4B	4d	.
.	4A	4c	.
.	2G	4B	.
.	.	4c	.
.	2D	2d	2f
=80	=80	=80	=80
0r	2E	2c	2g
.	2F	4B	1a
.	.	4A	.
.	2D	1B	.
.	2E	.	2g#
=81	=81	=81	=81
2r	1F	1A	2a
1A	.	.	1cc
.	1E	2r	.
2G	.	[2e	2b
=82	=82	=82	=82
2A	0r	2e]	2cc
2B	.	2d	4dd
.	.	.	4cc
[1G	.	2e	4b
.	.	.	4a
.	.	2d	[2b
=83	=83	=83	=83
1G]	0r	4g	4b]
.	.	4f	4a
.	.	4e	4g
.	.	4d	4f
[1A	.	2c	2e
.	.	[2d	2f
=84	=84	=84	=84
1A]	2r	2d]	0e
.	1A	4c	.
.	.	4B	.
2r	.	2c	.
2B	2G	[2e	.
=85	=85	=85	=85
2c	2A	2e]	0r
2d	2B	2d	.
2B	2G	2e	.
[2c	[2A	[2f	.
=86	=86	=86	=86
4c]	4A]	4f]	1r
4B	4G	4e	.
2G	2E	1e	.
1A	1F	.	2r
.	.	2d	[2a
=87	=87	=87	=87
2B	2E	[0e	2a]
2B	2E	.	2g
2c	2A	.	2a
4B	4G#	.	2b
4A	4F#	.	.
=88	=88	=88	=88
2B	0G#	0e]	2g#
2c	.	.	1a
1B	.	.	.
.	.	.	2g#
=89	=89	=89	=89
[0c#	[0A	[0e	[0a
=90	=90	=90	=90
0c#]	0A]	0e]	0a]
*-	*-	*-	*-
!! Et iterum
**kern	**kern	**kern	**kern	**kern
*Ibass	*Itenor	*Itenor	*Icalto	*Icant
!Bassus	!Tenor 2	!Tenor 1	!Altus	!Cantus
*clefF4	*clefGv2	*clefGv2	*clefG2	*clefG2
*k[]	*k[]	*k[]	*k[]	*k[]
*E:phr	*E:phr	*E:phr	*E:phr	*E:phr
*M4/2	*M4/2	*M4/2	*M4/2	*M4/2
=91	=91	=91	=91	=91
0r	0r	1E	0r	0r
.	.	1F	.	.
=92	=92	=92	=92	=92
0r	0r	1G	1B	0r
.	.	[1A	2c	.
.	.	.	2A	.
=93	=93	=93	=93	=93
0r	0r	2A]	2c	1e
.	.	2A	2c	.
.	.	2D	2d	1f
.	.	2d	2d	.
=94	=94	=94	=94	=94
1E	0r	2c	1e	1g
.	.	2B	.	.
2F	.	2A	2c	[1a
2D	.	[2d	[2f	.
=95	=95	=95	=95	=95
2F	0r	4d]	2f]	2a]
.	.	4c	.	.
2F	.	1c	2f	2a
2G	.	.	1d	1g
2G	.	2B	.	.
=96	=96	=96	=96	=96
1A	2r	1c	2.c	1e
.	2A	.	.	.
.	.	.	8d	.
.	.	.	8e	.
1F	2c	2r	1f	1a
.	2A	[2c	.	.
=97	=97	=97	=97	=97
2C	2c	4c]	1e	1g
.	.	8B	.	.
.	.	8A	.	.
2E	2c	2G	.	.
1D	2d	1A	1r	1f#
.	2d	.	.	.
=98	=98	=98	=98	=98
2.C	4e	1c	0r	1g
.	4d	.	.	.
.	2.c	.	.	.
8BB	.	.	.	.
8AA	.	.	.	.
1GG	.	1d	.	1g
.	8B	.	.	.
.	8A	.	.	.
.	2B	.	.	.
=99	=99	=99	=99	=99
1C	2c	2e	0r	1g
.	2C	2c	.	.
1r	4D	2.A	.	1f
.	4E	.	.	.
.	4F	.	.	.
.	4G	4B	.	.
=100	=100	=100	=100	=100
0r	4A	2c	2r	1e
.	4B	.	.	.
.	2c	2C	2g	.
.	2A	4D	1f	1d
.	.	4E	.	.
.	[2A	4F	.	.
.	.	4G	.	.
=101	=101	=101	=101	=101
0r	4A]	4A	1e	1c
.	4G	4B	.	.
.	2E	1c	.	.
.	2F	.	1d	1r
.	2G	2B	.	.
=102	=102	=102	=102	=102
1r	2C	2c	1c	1.e
.	1c	1A	.	.
[1E	.	.	1r	.
.	2B	2G	.	2e
=103	=103	=103	=103	=103
2E]	1e	2B	0r	0g
2E	.	1c	.	.
1G	[1d	.	.	.
.	.	4B	.	.
.	.	4A	.	.
=104	=104	=104	=104	=104
1G	2d]	1B	1r	1g
.	1e	.	.	.
1A	.	1c	2r	2.e
.	2A	.	[2c	.
.	.	.	.	4f
=105	=105	=105	=105	=105
1G	1r	1d	2c]	2g
.	.	.	2B	2g
1F	2r	1A	2c	1a
.	2A	.	2d	.
=106	=106	=106	=106	=106
1E	2B	0r	1e	2.g
.	2c	.	.	.
.	.	.	.	8f
.	.	.	.	8e
1D	4d	.	2A	2f
.	4c	.	.	.
.	4B	.	2d	2f
.	4A	.	.	.
=107	=107	=107	=107	=107
[0E	2G#	0r	2B	1e
.	1A	.	2c	.
.	.	.	1B	2r
.	4G#	.	.	[2b
.	4F#	.	.	.
=108	=108	=108	=108	=108
1E]	1G#	0r	1e	2b]
.	.	.	.	2cc
1r	1r	.	2f	2dd
.	.	.	2g	2b
=109	=109	=109	=109	=109
0r	0r	0r	2e	2cc
.	.	.	2f	2.dd
.	.	.	2g	.
.	.	.	.	4cc
.	.	.	2d	4b
.	.	.	.	4a
=110	=110	=110	=110	=110
0r	0r	2r	2e	2g
.	.	2A	1f	1a
.	.	2B	.	.
.	.	2c	[2e	2g
=111	=111	=111	=111	=111
0r	1r	2A	2e]	1f
.	.	2B	2d	.
.	2r	1c	[1e	2.e
.	2A	.	.	.
.	.	.	.	4f
=112	=112	=112	=112	=112
1E	2B	1G	1e]	2g
.	2c	.	.	2e
2F	2A	2r	1r	1d
2G	2B	2G	.	.
=113	=113	=113	=113	=113
2E	2c	2G	2r	0r
2F	2A	2A	1d	.
1G	4G	2B	.	.
.	4A	.	.	.
.	4B	2G	2e	.
.	4c	.	.	.
=114	=114	=114	=114	=114
1D	2.d	1A	1f	2r
.	.	.	.	2.a
.	4c	.	.	.
1E	1B	1r	2e	.
.	.	.	.	8g#
.	.	.	.	8f#
.	.	.	[2e	2g#
=115	=115	=115	=115	=115
1F	1A	2r	4e]	2.a
.	.	.	8d	.
.	.	.	8c	.
.	.	2A	2d	.
.	.	.	.	4b
2E	2r	2G	2e	2cc
2D	[2A	2A	2f	2dd
=116	=116	=116	=116	=116
1E	4A]	2r	[0e	2cc
.	8G#	.	.	.
.	8F#	.	.	.
.	2G#	2E	.	2b
2r	2A	2A	.	2cc
2E	2B	4G	.	[2b
.	.	4F	.	.
=117	=117	=117	=117	=117
2C	1c	2E	0e]	4b]
.	.	.	.	4a
2AA	.	2.e	.	1a
1E	1B	.	.	.
.	.	4d	.	.
.	.	2B	.	2g#
=118	=118	=118	=118	=118
[0AA	[0A	[0c#	[0e	[0a
=119	=119	=119	=119	=119
0AA]	0A]	0c#]	0e]	0a]
!! Qui cum Patre
*Ibass	*Itenor	*Itenor	*Icalto	*Icant
!Bassus	!Tenor 2	!Tenor 1	!Altus	!Cantus
*clefF4	*clefGv2	*clefGv2	*clefG2	*clefG2
*k[]	*k[]	*k[]	*k[]	*k[]
*E:phr	*E:phr	*E:phr	*E:phr	*E:phr
*M4/2	*M4/2	*M4/2	*M4/2	*M4/2
=120	=120	=120	=120	=120
0r	0r	0r	1e	1r
.	.	.	1d	1a
=121	=121	=121	=121	=121
0r	0r	0r	1e	1g
.	.	.	2f	1a
.	.	.	[2d	.
=122	=122	=122	=122	=122
0r	0r	0r	2d]	2b
.	.	.	1e	1g
.	.	.	[2f	[2a
=123	=123	=123	=123	=123
0r	0r	0r	4f]	2a]
.	.	.	4e	.
.	.	.	4d	2.b
.	.	.	4c	.
.	.	.	2d	.
.	.	.	.	4a
.	.	.	2c	[2a
=124	=124	=124	=124	=124
1r	1r	0r	1B	2a]
.	.	.	.	2g#
2r	2r	.	1A	2a
2A	2c	.	.	2a
=125	=125	=125	=125	=125
2E	2B	1r	2r	2g
1A	4A	.	2e	1cc
.	4B	.	.	.
.	4c	1e	2A	.
.	4A	.	.	.
2G	2B	.	[2e	2b
=126	=126	=126	=126	=126
1F	2c	1A	2e]	1.a
.	2d	.	2d	.
1E	1e	1r	2c	.
.	.	.	2B	2g
=127	=127	=127	=127	=127
1D	1A	2r	2.d	1f
.	.	1A	.	.
.	.	.	4c	.
1E	2r	.	1B	[1e
.	2B	2G#	.	.
=128	=128	=128	=128	=128
2r	2c	2A	2r	1e]
2E	2B	4G	2e	.
.	.	4B	.	.
2A	2A	2c	2f	1r
2G	2E	2B	2e	.
=129	=129	=129	=129	=129
2F	4A	2A	2d	0r
.	4B	.	.	.
2E	1c	2G	2c	.
2F	.	2A	1d	.
2G	[2B	2B	.	.
=130	=130	=130	=130	=130
2.C	4B]	1c	1.e	1r
.	4A	.	.	.
.	1A	.	.	.
4D	.	.	.	.
1E	.	2r	.	1b
.	2G#	2B	2e	.
=131	=131	=131	=131	=131
0r	0r	2.e	2.g	2cc
.	.	.	.	2b
.	.	4d	4f	.
.	.	2c	2e	2a
.	.	2B	2d	2g
=132	=132	=132	=132	=132
1r	1r	2c	2e	1a
.	.	2d	2f#	.
2r	2r	1G	2g	1b
[2E	2B	.	[2G	.
=133	=133	=133	=133	=133
2E]	2c	0r	2G]	0r
2F	2.d	.	2A	.
2G	.	.	2B	.
.	4B	.	.	.
2E	[2e	.	2G	.
=134	=134	=134	=134	=134
0A	4e]	0r	2.c	2r
.	4d	.	.	.
.	4c	.	.	1e
.	4B	.	4d	.
.	2c	.	2e	.
.	2A	.	2c	2f
=135	=135	=135	=135	=135
2G	2B	0r	2d	2g
2A	1e	.	1c	2e
1F	.	.	.	1a
.	2d	.	4B	.
.	.	.	4A	.
=136	=136	=136	=136	=136
2E	1e	2r	2B	2g#
2AA	.	1A	2c#	2a
1D	1r	.	1d	1f
.	.	2B	.	.
=137	=137	=137	=137	=137
1A	0r	2c	2r	2e
.	.	2A	2e	2.a
1D	.	1d	2f	.
.	.	.	.	4g
.	.	.	[2a	2f
=138	=138	=138	=138	=138
0r	1r	2c	4a]	2e
.	.	.	4g	.
.	.	2d	4f	1a
.	.	.	4e	.
.	2r	1B	2d	.
.	[2E	.	[2e	[2g
=139	=139	=139	=139	=139
1r	2E]	2B	2e]	2g]
.	2F	2A	2.d	4f
.	.	.	.	4e
2r	2G	2B	.	2d
.	.	.	4B	.
[2C	2E	[2c	[2e	2g
=140	=140	=140	=140	=140
2C]	1A	2c]	2e]	2.e
2D	.	2A	4d	.
.	.	.	4c	4f
2E	2G	1e	2B	2g
2C	2A	.	2c	[2e
=141	=141	=141	=141	=141
1D	0F	2r	1A	2e]
.	.	1A	.	4d
.	.	.	.	4c
1D	.	.	2r	1d
.	.	2A	[2A	.
=142	=142	=142	=142	=142
1AA	[0E	2.c	2A]	[0e
.	.	.	2A	.
.	.	4B	.	.
1AA	.	1A	1c	.
=143	=143	=143	=143	=143
[0E	1E_	[0G#	[0B	1e_
.	1E_	.	.	1e_
=144	=144	=144	=144	=144
0E]	0E]	0G#]	0B]	0e]
!! Confiteor
*Ibass	*Itenor	*Itenor	*Icalto	*Icant
!Bassus	!Tenor 2	!Tenor 1	!Altus	!Cantus
*clefF4	*clefGv2	*clefGv2	*clefG2	*clefG2
*k[]	*k[]	*k[]	*k[]	*k[]
*E:phr	*E:phr	*E:phr	*E:phr	*E:phr
*M3/2	*M3/2	*M3/2	*M3/2	*M3/2
=145	=145	=145	=145	=145
1r	2A	1r	1r	1r
.	2A	.	.	.
2r	2B	2r	2r	2r
=146	=146	=146	=146	=146
1r	1c	2A	2e	1r
.	.	2A	2c	.
2r	2B	2B	2d	2r
=147	=147	=147	=147	=147
2A	1A	2c	2e	2a
2F	.	2c	2f	2a
2G	2r	2B	2d	2b
=148	=148	=148	=148	=148
2A	1r	4A	4c	2cc
.	.	4B	4d	.
2A	.	4c	4e	2cc
.	.	4A	4f	.
2G	2r	2d	2g	2b
=149	=149	=149	=149	=149
2A	1r	2.c	1e	2cc
1F	.	.	.	1a
.	.	4B	.	.
.	2r	2A	2d	.
=150	=150	=150	=150	=150
2E	2r	2B	2e	2g
2C	2e	2r	2g	2cc
2G	2d	2r	2g	2b
=151	=151	=151	=151	=151
2E	2e	1r	2g	2b
1A	1c	.	2e	1a
.	.	2r	2f#	.
=152	=152	=152	=152	=152
1.G	1B	2d	[1.g	1.b
.	.	2e	.	.
.	2r	2d	.	.
=153	=153	=153	=153	=153
1r	2d	2B	1.g]	1r
.	2e	2c	.	.
2r	2d	2B	.	2r
=154	=154	=154	=154	=154
2G	2B	2d	2r	1r
2A	2c	2c	2r	.
2G	2d	2B	2d	2r
=155	=155	=155	=155	=155
2E	2c	2G	2e	2g
2F	2A	2r	2d	2a
2G	2d	2r	2B	2g
=156	=156	=156	=156	=156
1A	2c	2r	2c	2e
.	2r	2A	2c	2f
2G	2r	2B	2d	2g
=157	=157	=157	=157	=157
2F	2r	2c	2A	2a
2E	2r	2c	2e	2g
2D	2A	2d	2A	2f
=158	=158	=158	=158	=158
2E	2G	1c	2r	1e
1F	2A	.	1A	.
.	2D	2A	.	2d
=159	=159	=159	=159	=159
2E	2r	2G	2B	[1.e
1AA	2E	1A	2.c	.
.	2c	.	.	.
.	.	.	8B	.
.	.	.	8A	.
=160	=160	=160	=160	=160
2C	2.c	1.E	2G	1.e]
1AA	.	.	2A	.
.	4B	.	.	.
.	2A	.	2c	.
=161	=161	=161	=161	=161
[1.E	[1.G#	[1.E	[1.B	[1.e
=162	=162	=162	=162	=162
1.E]	1.G#]	1.E]	1.B]	1.e]
!! Et vitam
*Ibass	*Itenor	*Itenor	*Icalto	*Icant
!Bassus	!Tenor 2	!Tenor 1	!Altus	!Cantus
*clefF4	*clefGv2	*clefGv2	*clefG2	*clefG2
*k[]	*k[]	*k[]	*k[]	*k[]
*E:phr	*E:phr	*E:phr	*E:phr	*E:phr
*M4/2	*M4/2	*M4/2	*M4/2	*M4/2
=163	=163	=163	=163	=163
0AA	[0c	0A	[0e	1a
.	.	.	.	[1cc
=164	=164	=164	=164	=164
1C	1c]	0G	1e]	2cc]
.	.	.	.	4b
.	.	.	.	4a
1GG	[1d	.	[1g	1b
=165	=165	=165	=165	=165
0D	0d]	0A	2g]	1.a
.	.	.	4f#	.
.	.	.	4e	.
.	.	.	1f#	.
.	.	.	.	2b
=166	=166	=166	=166	=166
0C	1.G	0E	2.g	0cc
.	.	.	4f	.
.	.	.	1e	.
.	2A	.	.	.
=167	=167	=167	=167	=167
1GG	2.B	0G	1d	0b
.	4c	.	.	.
[1G	1d	.	1B	.
=168	=168	=168	=168	=168
2G]	0D	0A	0d	1a
4F	.	.	.	.
4E	.	.	.	.
1F	.	.	.	[1a
=169	=169	=169	=169	=169
0E	0r	0B	0e	2a]
.	.	.	.	4g#
.	.	.	.	4f#
.	.	.	.	1g#
=170	=170	=170	=170	=170
2.F	2r	0A	2c	[0a
.	1D	.	1f	.
4E	.	.	.	.
2D	.	.	.	.
2C	2E	.	[2e	.
=171	=171	=171	=171	=171
2D	2F	0A	4e]	1a]
.	.	.	4d	.
2D	2F	.	2d	.
1AA	[1E	.	2.c	2r
.	.	.	.	[2cc
.	.	.	4d	.
=172	=172	=172	=172	=172
0r	1E]	1G	1e	2cc]
.	.	.	.	1b
.	2r	1F	2.A	.
.	[2c	.	.	[2a
.	.	.	4B	.
=173	=173	=173	=173	=173
0r	4c]	1E	1c	4a]
.	4B	.	.	4g
.	2G	.	.	1g
.	[1A	[1D	[1d	.
.	.	.	.	4f#
.	.	.	.	4e
=174	=174	=174	=174	=174
1r	2A]	1D]	2d]	2f#
.	2A	.	2d	2f#
1GG	1B	1D	1d	[1g
=175	=175	=175	=175	=175
1.C	1c	[0E	1G	1g]
.	2r	.	2A	[1cc
2BB	2G	.	2B	.
=176	=176	=176	=176	=176
1AA	2A	0E]	2c	2cc]
.	2B	.	2d	2b
1AA	2c	.	2.e	2a
.	2c	.	.	2a
.	.	.	4e	.
=177	=177	=177	=177	=177
[0E	[0B	[0E	[0e	[0g#
=178	=178	=178	=178	=178
0E]	0B]	0E]	0e]	0g#]
=179	=179	=179	=179	=179
0r	1r	0r	1A	1r
.	2r	.	1c	1e
.	2A	.	.	.
=180	=180	=180	=180	=180
0r	2B	0r	2d	1g
.	2.c	.	2.e	.
.	.	.	.	[1a
.	4B	.	4d	.
.	4A	.	4c	.
.	4G	.	4B	.
=181	=181	=181	=181	=181
0r	2F	0r	2A	2a]
.	2E	.	2B	2g
.	2.A	.	[1c	2f
.	.	.	.	[2e
.	4G	.	.	.
=182	=182	=182	=182	=182
1r	1F	1r	2c]	2e]
.	.	.	4B	2d
.	.	.	4A	.
2r	2E	1B	4G#	1e
.	.	.	4A	.
2E	2G#	.	2B	.
=183	=183	=183	=183	=183
2F	2A	1d	2A	0r
2.G	2.B	.	2G	.
.	.	[1e	2r	.
4F	4A	.	.	.
4E	4G	.	2B	.
4D	4F	.	.	.
=184	=184	=184	=184	=184
2C	2G	2e]	2c	1g
2BB	2D	2d	2d	.
2AA	2A	2c	[1e	2a
2E	2G#	2B	.	2b
=185	=185	=185	=185	=185
0AA	2A	0A	0e]	0cc
.	1c	.	.	.
.	4B	.	.	.
.	4A	.	.	.
=186	=186	=186	=186	=186
[0E	[0G#	[0B	[0e	[0b
=187	=187	=187	=187	=187
0E]	0G#]	0B]	0e]	0b]
==	==	==	==	==
*-	*-	*-	*-	*-
!!!CDT: 1525/^1526/-1594/2/2
!!!OCY: Italia
!!!AGN: Mass (Paraphrase)
!!!AST: renaissance, vocal
!!!ASW: Gregorian Mass
!!!PWK: Masses, Book Mantuan I
!!!RNB: Cadence finals: A
!!!YOR: Le Opere Complete, v. 18, p. 1
!!!YOO: Rome, Italy: Fratelli Scalera
!!!END: 1992//
!!!EED: John Miller
!!!YEC: Copyright 2000, John Miller
!!!YEN: United States of America
!!!YEM: Rights to all derivative electronic formats reserved.
!!!YEM: Refer to licensing agreement for further details.
!!!YEM: This file must be accompanied by the licensing agreement.
!!!YEM: A copy of the licensing agreement may be found at http://www.music-cog.ohio-state.edu/HumdrumDatabases/Palestrina/license.txt
!!!EMD: converted to Humdrum by Bret Aarden
